X:1
T:House of ther Rising Sun
M:3/4
L:1/8
K:F
 A,| D4- D3/2 E/2| F4- F3/2 G/2| A3 G2- F| F/2- D3/2- D2 z3/2 d/2|\
 d4 d2| c4- c3/2 d/2| A6-| A4 dd| d4- d3/2 D/2| F/2 F3/2- F2- F3/2 G/2|\
 A/2 A3/2- AG G/2- F3/2| F/2- D3/2- D2 z A| A/2- G3/2- G2 F2| D- A,3- A,C|\
 D6-| D4 z||
